webroot/img/new-desgin/why_besa/icon-3.svg

<svg width="104" height="105" viewBox="0 0 104 105" fill="none" xmlns="http://www.w3.org/2000/svg">
<rect width="104" height="105" fill="#303030"/>
<g clip-path="url(#clip0_0_1)">
<rect width="1440" height="10519" transform="translate(-668 -1976)" fill="#FEFEFE"/>
<path d="M16.1337 93.3028C16.8963 93.3016 17.6421 93.0783 18.2798 92.6601C18.9176 92.242 19.4196 91.647 19.7247 90.9481H24.8854C26.9301 90.9481 28.8884 91.576 30.5485 92.7651L35.2501 96.1304C38.4734 98.4455 42.3717 99.6299 46.3381 99.4993C50.3044 99.3687 54.1164 97.9304 57.1804 95.4083L78.9792 77.4359C80.6687 76.0447 80.6981 73.4643 79.0459 72.0299C77.6331 70.8055 75.8559 70.0814 73.9897 69.97C72.1235 69.8586 70.2727 70.3661 68.7244 71.4137L58.4794 78.3288C57.7612 75.9407 55.4281 74.1825 52.7751 74.1825H42.8539C40.2757 74.1816 37.8031 73.1584 35.9781 71.3372C33.4095 68.7819 29.9371 67.3422 26.314 67.3303H19.7207C19.4149 66.6337 18.9133 66.041 18.2768 65.6244C17.6403 65.2077 16.8964 64.985 16.1357 64.9834H6.83848C6.31806 64.9834 5.81895 65.1901 5.45095 65.5581C5.08296 65.9261 4.87622 66.4252 4.87622 66.9457C4.87622 67.4661 5.08296 67.9652 5.45095 68.3332C5.81895 68.7012 6.31806 68.9079 6.83848 68.9079H16.1337V89.3783H6.83848C6.31806 89.3783 5.81895 89.585 5.45095 89.953C5.08296 90.321 4.87622 90.8201 4.87622 91.3405C4.87622 91.861 5.08296 92.3601 5.45095 92.7281C5.81895 93.0961 6.31806 93.3028 6.83848 93.3028H16.1337ZM20.0583 71.2548H26.312C28.8941 71.2631 31.3688 72.2889 33.1995 74.1099C35.7623 76.6668 39.2337 78.1041 42.8539 78.107H52.7751C53.8288 78.107 54.8472 78.9567 54.7805 79.9908C54.7511 80.4392 54.5523 80.8596 54.2243 81.1668C53.8964 81.474 53.4638 81.645 53.0145 81.645H39.4356C38.9152 81.645 38.4161 81.8517 38.0481 82.2197C37.6801 82.5877 37.4734 83.0868 37.4734 83.6073C37.4734 84.1277 37.6801 84.6268 38.0481 84.9948C38.4161 85.3628 38.9152 85.5695 39.4356 85.5695H53.0145C54.1644 85.5695 55.2593 85.2359 56.1855 84.606C57.9908 83.4012 71.1281 74.5259 70.926 74.6633C71.6934 74.1434 72.601 73.8697 73.5278 73.8784C74.4546 73.8872 75.3568 74.1781 76.1143 74.7123L54.6824 92.3805C52.2859 94.351 49.3055 95.4743 46.2047 95.5758C43.1038 95.6773 40.0563 94.7513 37.5361 92.9417L32.8326 89.5745C30.517 87.9109 27.7366 87.0184 24.8854 87.0236H20.0583V71.2548Z" fill="url(#paint0_linear_0_1)"/>
<path d="M13.7947 85.434C13.7947 84.9136 13.588 84.4145 13.22 84.0465C12.852 83.6785 12.3529 83.4717 11.8325 83.4717H11.8187C10.7355 83.4717 9.8643 84.3508 9.8643 85.434C9.8643 86.5172 10.7512 87.3963 11.8344 87.3963C12.9176 87.3963 13.7947 86.5172 13.7947 85.434ZM51.3956 70.2578C61.515 70.2578 69.7467 62.0242 69.7467 51.9067C69.7467 41.7874 61.515 33.5576 51.3956 33.5576C41.2762 33.5576 33.0445 41.7874 33.0445 51.9048C33.0445 62.0242 41.2762 70.2578 51.3956 70.2578ZM51.3956 37.4821C59.3506 37.4821 65.8222 43.9517 65.8222 51.9048C65.8222 59.8598 59.3506 66.3333 51.3956 66.3333C43.4406 66.3333 36.9691 59.8598 36.9691 51.9067C36.9691 43.9517 43.4406 37.4821 51.3956 37.4821Z" fill="url(#paint1_linear_0_1)"/>
<path d="M51.3956 53.869C52.3728 53.869 53.1675 54.6618 53.1675 55.639C53.1696 56.1114 52.9842 56.5653 52.652 56.9011C52.3199 57.237 51.868 57.4274 51.3956 57.4305C51.0162 57.4315 50.6466 57.3097 50.3421 57.0834C50.0376 56.857 49.8145 56.5383 49.7061 56.1747C49.6311 55.9281 49.5083 55.6986 49.3446 55.4995C49.181 55.3004 48.9797 55.1354 48.7523 55.014C48.5249 54.8927 48.2758 54.8173 48.0193 54.7922C47.7628 54.7671 47.5038 54.7928 47.2572 54.8678C47.0106 54.9428 46.7812 55.0656 46.582 55.2293C46.3829 55.3929 46.2179 55.5942 46.0966 55.8216C45.9752 56.049 45.8998 56.2981 45.8748 56.5546C45.8497 56.8111 45.8753 57.0701 45.9503 57.3167C46.204 58.1594 46.651 58.9313 47.2557 59.5707C47.8604 60.2102 48.6061 60.6996 49.4333 60.9999V61.255C49.4333 61.7754 49.6401 62.2745 50.0081 62.6425C50.3761 63.0105 50.8752 63.2172 51.3956 63.2172C51.916 63.2172 52.4151 63.0105 52.7831 62.6425C53.1511 62.2745 53.3579 61.7754 53.3579 61.255V60.9842C54.4518 60.5813 55.396 59.8531 56.0636 58.8975C56.7312 57.9418 57.0901 56.8047 57.0921 55.639C57.0905 54.1286 56.4898 52.6806 55.4219 51.6127C54.3539 50.5447 52.9059 49.9441 51.3956 49.9425C50.9329 49.944 50.4877 49.7661 50.1535 49.4461C49.8154 49.1076 49.6249 48.649 49.6237 48.1706C49.6237 47.1875 50.4145 46.3869 51.3897 46.383H51.4035C51.7814 46.3829 52.1493 46.5049 52.4523 46.7309C52.7554 46.9568 52.9773 47.2746 53.0851 47.6368C53.1601 47.8835 53.2829 48.1129 53.4466 48.312C53.6102 48.5112 53.8115 48.6761 54.0389 48.7975C54.2663 48.9188 54.5154 48.9942 54.7719 49.0193C55.0285 49.0444 55.2874 49.0187 55.534 48.9437C55.7806 48.8687 56.0101 48.7459 56.2092 48.5823C56.4083 48.4186 56.5733 48.2173 56.6946 47.9899C56.816 47.7625 56.8914 47.5134 56.9165 47.2569C56.9416 47.0004 56.9159 46.7414 56.8409 46.4948C56.5869 45.6522 56.1398 44.8805 55.5352 44.2411C54.9305 43.6017 54.185 43.1122 53.3579 42.8116V42.5585C53.3579 42.0381 53.1511 41.539 52.7831 41.171C52.4151 40.803 51.916 40.5962 51.3956 40.5962C50.8752 40.5962 50.3761 40.803 50.0081 41.171C49.6401 41.539 49.4333 42.0381 49.4333 42.5585V42.8273C48.3396 43.2299 47.3954 43.9577 46.7278 44.913C46.0602 45.8683 45.7012 47.0051 45.6992 48.1706C45.6992 49.6717 46.282 51.0983 47.3789 52.2207C48.4497 53.2758 49.8923 53.8678 51.3956 53.869ZM50.9011 13.4915L41.2546 15.9738C41.0045 16.0374 40.7693 16.1497 40.5627 16.3044C40.356 16.459 40.1819 16.6529 40.0503 16.875C39.9187 17.097 39.8322 17.3428 39.7957 17.5984C39.7592 17.8539 39.7736 18.1141 39.8378 18.3641C39.9021 18.6141 40.0151 18.8489 40.1702 19.0552C40.3254 19.2614 40.5198 19.4351 40.7422 19.5661C40.9645 19.6971 41.2106 19.783 41.4662 19.8188C41.7218 19.8546 41.982 19.8396 42.2318 19.7747L51.3917 17.4199L60.5496 19.7747C60.7994 19.8396 61.0596 19.8546 61.3152 19.8188C61.5708 19.783 61.8169 19.6971 62.0393 19.5661C62.2616 19.4351 62.456 19.2614 62.6112 19.0552C62.7663 18.8489 62.8793 18.6141 62.9436 18.3641C63.0078 18.1141 63.0222 17.8539 62.9857 17.5984C62.9493 17.3428 62.8627 17.097 62.7311 16.875C62.5995 16.6529 62.4254 16.459 62.2187 16.3044C62.0121 16.1497 61.7769 16.0374 61.5268 15.9738L51.8803 13.4915C51.5598 13.4091 51.2216 13.4091 50.9011 13.4915Z" fill="url(#paint2_linear_0_1)"/>
<path d="M99.1238 49.6753C99.1238 47.1244 97.4755 44.9678 95.1914 44.1574V18.0475C95.1914 17.1939 94.5046 16.3502 93.7197 16.1481L51.8783 5.387C51.5578 5.30459 51.2217 5.30459 50.9011 5.387L9.06369 16.1481C7.10535 16.6504 7.10731 19.4447 9.06369 19.947L19.0928 22.5274V42.8976C19.0976 44.5996 19.6521 46.2545 20.6736 47.6158C21.6951 48.9771 23.129 49.972 24.7618 50.4524C25.4447 50.6525 26.1491 50.8527 26.832 51.0352C27.3352 51.1679 27.8706 51.0952 28.3203 50.8332C28.77 50.5712 29.0972 50.1413 29.2299 49.638C29.3626 49.1348 29.2899 48.5994 29.0279 48.1497C28.7659 47.7 28.336 47.3728 27.8327 47.2401C27.1723 47.0638 26.5142 46.8787 25.8587 46.6848C25.0402 46.4441 24.3213 45.9454 23.8093 45.2629C23.2973 44.5805 23.0195 43.7508 23.0174 42.8976V23.5497L50.9031 30.71C51.2229 30.7924 51.5585 30.7924 51.8783 30.71L79.766 23.5478V42.8976C79.766 44.6441 78.5985 46.2001 76.9207 46.6848C76.2652 46.8786 75.6071 47.0637 74.9467 47.2401C74.6975 47.306 74.4638 47.4202 74.2587 47.5764C74.0537 47.7326 73.8815 47.9277 73.7518 48.1504C73.6222 48.3732 73.5377 48.6193 73.5031 48.8747C73.4686 49.1301 73.4847 49.3898 73.5506 49.639C73.6164 49.8882 73.7307 50.122 73.8869 50.327C74.043 50.532 74.2381 50.7043 74.4608 50.8339C74.6836 50.9635 74.9297 51.048 75.1851 51.0826C75.4405 51.1171 75.7002 51.101 75.9494 51.0352C76.6343 50.8527 77.3367 50.6525 78.0157 50.4543C79.6494 49.9748 81.0844 48.9802 82.107 47.6189C83.1296 46.2575 83.6851 44.6022 83.6906 42.8996V22.5254L91.2669 20.5769V44.1574C90.1248 44.56 89.1353 45.306 88.4341 46.2932C87.7328 47.2805 87.3542 48.4605 87.3502 49.6714C87.3502 52.2302 88.9906 54.3906 91.2649 55.205V55.8427C90.4393 56.0223 89.6932 56.4622 89.1365 57.0977C88.5797 57.7333 88.2418 58.5308 88.1724 59.3728L87.5189 67.8694C87.4346 68.9565 87.8133 70.0377 88.553 70.8383C89.2928 71.637 90.3426 72.0942 91.4317 72.0942H95.0423C96.1313 72.0942 97.1811 71.637 97.9209 70.8383C98.6607 70.0377 99.0394 68.9565 98.955 67.8694L98.3016 59.3728C98.2323 58.5271 97.892 57.7262 97.3313 57.0892C96.7707 56.4522 96.0195 56.013 95.1894 55.8368V55.2089C96.3366 54.8056 97.3308 54.0569 98.0353 53.0657C98.7398 52.0744 99.12 50.8894 99.1238 49.6733V49.6753ZM93.2272 51.6454C92.1499 51.6454 91.2747 50.7624 91.2747 49.6753C91.2747 48.598 92.1499 47.7209 93.2272 47.7209C94.3143 47.7209 95.1992 48.598 95.1992 49.6753C95.1992 50.7624 94.3143 51.6454 93.2272 51.6454ZM51.3917 26.7835L17.4308 18.0456L51.3917 9.31349L85.3526 18.0456L51.3917 26.7835ZM91.4317 68.1716L92.0851 59.675H94.3888L95.0423 68.1716H91.4317Z" fill="url(#paint3_linear_0_1)"/>
</g>
<defs>
<linearGradient id="paint0_linear_0_1" x1="11.9374" y1="68.1372" x2="32.4567" y2="124.445" gradientUnits="userSpaceOnUse">
<stop stop-color="#007BC4"/>
<stop offset="1" stop-color="#0B4C97"/>
</linearGradient>
<linearGradient id="paint1_linear_0_1" x1="15.473" y1="38.4756" x2="62.5415" y2="104.267" gradientUnits="userSpaceOnUse">
<stop stop-color="#007BC4"/>
<stop offset="1" stop-color="#0B4C97"/>
</linearGradient>
<linearGradient id="paint2_linear_0_1" x1="41.9518" y1="17.9776" x2="82.0859" y2="41.5099" gradientUnits="userSpaceOnUse">
<stop stop-color="#007BC4"/>
<stop offset="1" stop-color="#0B4C97"/>
</linearGradient>
<linearGradient id="paint3_linear_0_1" x1="16.1684" y1="11.4243" x2="69.726" y2="103.689" gradientUnits="userSpaceOnUse">
<stop stop-color="#007BC4"/>
<stop offset="1" stop-color="#0B4C97"/>
</linearGradient>
<clipPath id="clip0_0_1">
<rect width="1440" height="10519" fill="white" transform="translate(-668 -1976)"/>
</clipPath>
</defs>
</svg>

<svg width="104" height="105" fill="none" xmlns="http://www.w3.org/2000/svg"><path fill="#303030" d="M0 0h104v105H0z"/><g clip-path="url(#a)"><path fill="#FEFEFE" d="M-668-1976H772V8543H-668z"/><path d="M16.134 93.303a3.925 3.925 0 0 0 3.59-2.355h5.161c2.045 0 4.003.628 5.663 1.817l4.702 3.365a17.992 17.992 0 0 0 21.93-.722l21.8-17.972a3.542 3.542 0 0 0 .066-5.406 8.493 8.493 0 0 0-10.322-.616L58.48 78.329c-.718-2.388-3.05-4.146-5.704-4.146h-9.921a9.739 9.739 0 0 1-6.876-2.846 13.767 13.767 0 0 0-9.664-4.007h-6.593a3.924 3.924 0 0 0-3.585-2.347H6.838a1.962 1.962 0 1 0 0 3.925h9.296v20.47H6.838a1.962 1.962 0 1 0 0 3.925h9.296Zm3.924-22.048h6.254a9.811 9.811 0 0 1 6.887 2.855 13.685 13.685 0 0 0 9.655 3.997h9.921c1.054 0 2.072.85 2.006 1.884a1.77 1.77 0 0 1-1.767 1.654H39.436a1.962 1.962 0 1 0 0 3.925h13.578c1.15 0 2.245-.334 3.171-.964 1.806-1.205 14.943-10.08 14.741-9.943a4.562 4.562 0 0 1 5.188.05L54.682 92.38a14.073 14.073 0 0 1-17.146.56l-4.703-3.367a13.578 13.578 0 0 0-7.948-2.55h-4.827v-15.77Z" fill="url(#b)"/><path d="M13.795 85.434a1.962 1.962 0 0 0-1.963-1.962h-.013c-1.084 0-1.955.879-1.955 1.962a1.97 1.97 0 0 0 1.97 1.962c1.084 0 1.96-.879 1.96-1.962Zm37.6-15.176c10.12 0 18.352-8.234 18.352-18.351 0-10.12-8.232-18.35-18.351-18.35-10.12 0-18.352 8.23-18.352 18.348 0 10.12 8.232 18.353 18.352 18.353Zm0-32.776c7.956 0 14.427 6.47 14.427 14.423 0 7.955-6.471 14.428-14.426 14.428S36.969 59.86 36.969 51.907c0-7.955 6.472-14.425 14.427-14.425Z" fill="url(#c)"/><path d="M51.396 53.869c.977 0 1.771.793 1.771 1.77a1.783 1.783 0 0 1-1.771 1.791 1.759 1.759 0 0 1-1.69-1.255 1.962 1.962 0 1 0-3.756 1.142A5.651 5.651 0 0 0 49.433 61v.255a1.962 1.962 0 0 0 3.925 0v-.27a5.706 5.706 0 0 0 3.734-5.346 5.703 5.703 0 0 0-5.696-5.697 1.788 1.788 0 0 1-1.242-.496 1.811 1.811 0 0 1-.53-1.275c0-.983.79-1.784 1.766-1.788h.014a1.753 1.753 0 0 1 1.681 1.254 1.961 1.961 0 0 0 3.61.353 1.962 1.962 0 0 0 .146-1.495 5.656 5.656 0 0 0-3.483-3.683v-.253a1.962 1.962 0 0 0-3.925 0v.268a5.705 5.705 0 0 0-3.734 5.344c0 1.5.583 2.927 1.68 4.05a5.73 5.73 0 0 0 4.017 1.648ZM50.9 13.492l-9.646 2.482a1.96 1.96 0 0 0-1.085 3.081 1.963 1.963 0 0 0 2.062.72l9.16-2.355 9.158 2.355a1.962 1.962 0 1 0 .977-3.801l-9.647-2.482a1.97 1.97 0 0 0-.979 0Z" fill="url(#d)"/><path d="M99.124 49.675c0-2.55-1.648-4.707-3.933-5.518v-26.11c0-.853-.686-1.697-1.471-1.899L51.878 5.387a1.962 1.962 0 0 0-.977 0L9.064 16.148c-1.959.502-1.957 3.297 0 3.799l10.029 2.58v20.37a7.898 7.898 0 0 0 5.669 7.555c.683.2 1.387.4 2.07.583a1.963 1.963 0 0 0 1-3.795 76.727 76.727 0 0 1-1.973-.555 3.958 3.958 0 0 1-2.842-3.787V23.55l27.886 7.16c.32.082.656.082.975 0l27.888-7.162v19.35a3.956 3.956 0 0 1-2.845 3.787c-.656.194-1.314.379-1.974.555a1.964 1.964 0 0 0-.486 3.594 1.965 1.965 0 0 0 1.488.201 91.9 91.9 0 0 0 2.067-.58A7.9 7.9 0 0 0 83.69 42.9V22.525l7.576-1.948v23.58a5.867 5.867 0 0 0-3.917 5.514c0 2.56 1.64 4.72 3.915 5.534v.638a3.944 3.944 0 0 0-3.093 3.53l-.653 8.496a3.94 3.94 0 0 0 1.034 2.97 3.935 3.935 0 0 0 2.879 1.255h3.61a3.935 3.935 0 0 0 2.879-1.256 3.94 3.94 0 0 0 1.034-2.969l-.653-8.496a3.944 3.944 0 0 0-3.113-3.536v-.628a5.887 5.887 0 0 0 3.935-5.536v.002Zm-5.897 1.97a1.963 1.963 0 0 1 0-3.924c1.087 0 1.972.877 1.972 1.954 0 1.087-.885 1.97-1.972 1.97ZM51.392 26.783 17.43 18.047l33.96-8.733 33.962 8.733-33.961 8.738Zm40.04 41.389.653-8.497h2.304l.653 8.497h-3.61Z" fill="url(#e)"/></g><defs><linearGradient id="b" x1="11.937" y1="68.137" x2="32.457" y2="124.445" gradientUnits="userSpaceOnUse"><stop stop-color="#007BC4"/><stop offset="1" stop-color="#0B4C97"/></linearGradient><linearGradient id="c" x1="15.473" y1="38.476" x2="62.541" y2="104.267" gradientUnits="userSpaceOnUse"><stop stop-color="#007BC4"/><stop offset="1" stop-color="#0B4C97"/></linearGradient><linearGradient id="d" x1="41.952" y1="17.978" x2="82.086" y2="41.51" gradientUnits="userSpaceOnUse"><stop stop-color="#007BC4"/><stop offset="1" stop-color="#0B4C97"/></linearGradient><linearGradient id="e" x1="16.168" y1="11.424" x2="69.726" y2="103.689" gradientUnits="userSpaceOnUse"><stop stop-color="#007BC4"/><stop offset="1" stop-color="#0B4C97"/></linearGradient><clipPath id="a"><path fill="#fff" transform="translate(-668 -1976)" d="M0 0h1440v10519H0z"/></clipPath></defs></svg>
